icons/notification-minimal.svg

<svg width="24" height="24" viewBox="0 0 24 24" fill="none" xmlns="http://www.w3.org/2000/svg">
<path fill-rule="evenodd" clip-rule="evenodd" d="M4.75 10.5C4.75 6.51421 8.01421 3.25 12 3.25C15.9858 3.25 19.25 6.51421 19.25 10.5V14.5C19.25 16.2858 17.7858 17.75 16 17.75H8C6.21421 17.75 4.75 16.2858 4.75 14.5V10.5ZM12 1.75C7.18579 1.75 3.25 5.68579 3.25 10.5V14.5C3.25 17.1142 5.38579 19.25 8 19.25H8.7592C8.8841 20.9444 10.27 22.25 12 22.25C13.7301 22.25 15.116 20.9444 15.2409 19.25H16C18.6142 19.25 20.75 17.1142 20.75 14.5V10.5C20.75 5.68579 16.8142 1.75 12 1.75ZM13.7333 19.25H10.2668C10.3836 20.112 11.0993 20.75 12 20.75C12.9007 20.75 13.6164 20.112 13.7333 19.25Z" fill="black"/>
</svg>

<svg xmlns="http://www.w3.org/2000/svg" fill="none" viewBox="0 0 24 24">
  <path fill="#000" fill-rule="evenodd" d="M4.75 10.5c0-3.986 3.264-7.25 7.25-7.25s7.25 3.264 7.25 7.25v4A3.262 3.262 0 0 1 16 17.75H8a3.262 3.262 0 0 1-3.25-3.25v-4ZM12 1.75c-4.814 0-8.75 3.936-8.75 8.75v4A4.762 4.762 0 0 0 8 19.25h.76c.124 1.694 1.51 3 3.24 3a3.223 3.223 0 0 0 3.24-3H16a4.762 4.762 0 0 0 4.75-4.75v-4c0-4.814-3.936-8.75-8.75-8.75Zm1.733 17.5h-3.466c.117.862.832 1.5 1.733 1.5.9 0 1.616-.638 1.733-1.5Z" clip-rule="evenodd"/>
</svg>
